X: 35767
T: Sally Gally
R: jig
M: 6/8
K: Gmajor
Bd|e3 edB|A3 AGA|BBe d2 B|G4 AB|
c2 c B2 A|G2 E D2 z|DGG GAB|A4 (3.B.c.d|
Bde edB|A3 AGA|B2 e d2 B|E4 GA|
BAB d z B|A2 G ABD|DED DBA|G4:|
(3.B.c.d|e2 d efg|e2 d B2 e|d2 e dBd|d4 Bd|
e2 d efg|e2 d B2 d|~G3 GAB|A4 GA|
B2 e d2 B|A3 AGA|B2 e d2 B n|E4 GA|
BAB d z B|A2 G ABD|DED DBA|G4:|

